X: 24972
T: Maid Of Lustrous Hair
R: waltz
M: 3/4
K: Cmajor
C6|C4 E2|G4 A2|c4 G2|A4 G2|G4 E2|D4 E2|A4 G2|
C6|C4 E2|G4 A2|A4 E2|G4 E2|D2 C4|C6|
c4 c2|c2 e4|d4 c2|c4 G2|E2 F4|G4 G2|_B4 B2|A4 G2|
G2 c4|e4 e2|d4 c2|c4 G2|A4 E2|G4 E2|D2 C4|C6|

